X:1
T:Title
%%score { ( 1 4 ) | ( 2 3 ) }
L:1/8
M:9/8
K:Bb
V:1 treble nm="Grand Piano"
V:4 treble 
V:2 bass 
V:3 bass 
V:1
 z3 z3[Q:1/4=100] [B,D]E[DF] | [EG]3 [DF]3 [Fd][Ec][DB] | [EG]3 [DF]3 [EG][FA][GB] | %3
 [Fd]3 [DB]3 [Fc]3 |[M:3/4] [Fd]6 |[M:3/8] dc[FB] |[M:9/8] [Gc]3 [Ge]3 edc | d3 c3 BAG | F3 B3 c3 | %9
[M:3/4] [DB]6 |] %10
V:2
 z3 z3 z C[B,,B,] | [B,,B,]3 [B,,B,]3 [B,,B,]2 [B,,B,] | [B,,B,]3 [B,,B,]3 [E,B,]2 [E,B,] | %3
 [F,B,]6 [F,A,]3 |[M:3/4] [B,,B,]6 |[M:3/8] [B,,B,][B,,A,][D,B,] | %6
[M:9/8] [E,G,]3 [C,C]3[K:treble] [F,A,F]2 [F,A,F] | [B,F]3[K:bass] [F,A,E]3 [B,D]-[F,B,D][E,B,_D] | %8
 [F,B,D]6 [F,A,E]3 |[M:3/4] [B,,B,]6 |] %10
V:3
 z3 z3 .B,,3 | x9 | x9 | x9 |[M:3/4] x6 |[M:3/8] x3 |[M:9/8] x6[K:treble] x3 | z3[K:bass] z3 .G,3 | %8
 x9 |[M:3/4] x6 |] %10
V:4
 x9 | x9 | x9 | x9 |[M:3/4] x6 |[M:3/8] F2 z |[M:9/8] x9 | x9 | x9 |[M:3/4] x6 |] %10

